X:651
T:Donny The Post
C:Joe Buchanan's Scottish Tome - Page 198.1
I:198 1
C:Graeme Mitchell
R:Reel
Z:Carl Allison
L:1/8
M:4/4
K:A
((3efg) | "A"a2 ga "A"faea | "A"ecef "A"ecBA | "Bm"BABc "Bm7"dcBA | "Bm"F2 B2 B2 "E7"((3efg) |
"A"a2 ga "A"faea | "A"ecef "A"ecBA | "Bm"BABc "Bm7"dcBA | "A"E2 A2 "A"A2 :|
CD | "A"EA,CE "A"AEAc | "A"e2 ed "A"cBcA | "Bm"BABc "Bm7"dcBA | "Bm"F2 B2 B2 "E7"CD |
"A"EA,CE "A"AEAc | "A"e2 ed "A"cBcA | "Bm"BABc "Bm7"dcBA | "A"E2 A2 A2 "A7"CD |
"A"EA,CE "A"AEAc | "A"e2 ed "A"cBcA | "Bm"BABc "Bm7"dcBA | "Bm"F2 B2 B2 "E7"((3efg) |
"A"a2 ga "A"faea | "A"ecef "A"ecBA | "Bm"BABc "Bm7"dcBA | "A"E2 A2 A2 |]

